X: 81
T:Shetland Two Step
M:6/8
L:1/8
R:Jig
Z:Tim Barker - Feb '99
K:A
EFG||A3E2A|c3A2c|e^de fed|e3edc|B3F2B|d3B2d|!
[b2g2][fa][e2g2][f^d]|efe dcB||A3E2A|c3A2c|e^de fed|
e3 edc|!B2 c d2 e|f2 a g2 f|efe dcB|A3||
% <A name="D1X082">
